X:1
T:The Whale Catchers
M:4/4
L:1/4
K:G
 D/2D/2| G G F G| A F D D| G G F G| A3| D/2D/2| G G =F G|A/2-B/2 d2 c/2B/2|\
 A G/2F/2 G E| D3|B/2-c/2| d c A F| G-A/2-G/2 D D| G G F G| A3| D|\
 G G F G|A/2-B/2 c d c/2B/2| A G D D| c- B A| F FE/2-D/2 C| D3||

